findly-builder/apps/searchassist/src/assets/icons/check-config.svg

<svg width="16" height="16" viewBox="0 0 16 16" fill="none" xmlns="http://www.w3.org/2000/svg">
<circle cx="8" cy="8" r="7.625" fill="#0D6EFD" stroke="#0D6EFD" stroke-width="0.75"/>
<path fill-rule="evenodd" clip-rule="evenodd" d="M11.3461 5.28749C11.4541 5.1712 11.6351 5.16534 11.7503 5.2744C11.8586 5.37705 11.8702 5.54491 11.7811 5.66125L11.7632 5.68244L6.92169 10.6088C6.81825 10.7201 6.64841 10.7299 6.53338 10.6358L6.51248 10.6169L4.20632 8.32231C4.09385 8.2104 4.09253 8.02763 4.20335 7.91407C4.30766 7.8072 4.47415 7.79972 4.58714 7.89251L4.60767 7.91108L6.70509 9.99796L11.3461 5.28749Z" fill="white"/>
</svg>

<svg width="16" height="16" fill="none" xmlns="http://www.w3.org/2000/svg"><circle cx="8" cy="8" r="7.625" fill="#0D6EFD" stroke="#0D6EFD" stroke-width=".75"/><path fill-rule="evenodd" clip-rule="evenodd" d="M11.346 5.287a.284.284 0 0 1 .404-.013.29.29 0 0 1 .031.387l-.018.021-4.841 4.927a.284.284 0 0 1-.389.027l-.02-.02-2.307-2.294a.29.29 0 0 1-.003-.408.284.284 0 0 1 .384-.021l.02.018 2.098 2.087 4.641-4.71Z" fill="#fff"/></svg>
